frontend/public/favicon.svg

<?xml version="1.0" encoding="UTF-8"?>
<svg xmlns="http://www.w3.org/2000/svg" xmlns:xlink="http://www.w3.org/1999/xlink" width="32px" height="32px" viewBox="0 0 32 32" version="1.1">
<g id="surface1">
<path style=" stroke:none;fill-rule:nonzero;fill:rgb(85.09804%,80.392158%,78.823531%);fill-opacity:1;" d="M 25.574219 31.359375 L 6.566406 31.265625 C 5.703125 31.265625 5.003906 30.566406 5.003906 29.703125 L 8.054688 6.671875 L 25.601562 1.125 C 27.136719 1.042969 27.222656 1.757812 27.222656 2.621094 L 27.128906 29.792969 C 27.136719 30.660156 26.433594 31.359375 25.574219 31.359375 Z M 25.574219 31.359375 "/>
<path style=" stroke:none;fill-rule:nonzero;fill:rgb(94.509804%,92.941177%,92.54902%);fill-opacity:1;" d="M 25.457031 30.515625 C 25.457031 30.515625 11.015625 30.761719 6.339844 30.496094 C 5.445312 30.445312 5.007812 30.089844 5.003906 29.703125 L 4.960938 2.582031 C 4.960938 1.71875 5.664062 1.019531 6.523438 1.019531 L 25.433594 1.101562 C 26.296875 1.101562 26.625 1.816406 26.625 2.675781 L 26.484375 29.027344 C 26.476562 29.890625 26.320312 30.515625 25.457031 30.515625 Z M 25.457031 30.515625 "/>
<path style=" stroke:none;fill-rule:nonzero;fill:rgb(85.490197%,5.490196%,12.941177%);fill-opacity:1;" d="M 7.453125 3.140625 C 7.453125 3.140625 7.835938 2.261719 8.011719 2.25 C 8.171875 2.238281 8.585938 3.15625 8.585938 3.15625 C 8.585938 3.15625 9.445312 3.171875 9.519531 3.289062 C 9.59375 3.410156 8.902344 4.226562 8.902344 4.226562 C 8.902344 4.226562 9.191406 5.21875 9.066406 5.296875 C 8.949219 5.371094 8.027344 4.84375 8.027344 4.84375 C 8.027344 4.84375 7.0625 5.371094 6.910156 5.265625 C 6.761719 5.164062 7.074219 4.121094 7.074219 4.121094 C 7.074219 4.121094 6.433594 3.457031 6.503906 3.289062 C 6.566406 3.136719 7.453125 3.140625 7.453125 3.140625 Z M 7.453125 3.140625 "/>
<path style=" stroke:none;fill-rule:nonzero;fill:rgb(85.490197%,5.490196%,12.941177%);fill-opacity:1;" d="M 24.566406 28.402344 C 24.566406 28.402344 24.191406 29.285156 24.015625 29.296875 C 23.859375 29.308594 23.433594 28.394531 23.433594 28.394531 C 23.433594 28.394531 22.542969 28.398438 22.46875 28.28125 C 22.390625 28.160156 23.054688 27.328125 23.054688 27.328125 C 23.054688 27.328125 22.828125 26.347656 22.941406 26.257812 C 23.09375 26.136719 23.984375 26.703125 23.984375 26.703125 C 23.984375 26.703125 24.949219 26.167969 25.101562 26.273438 C 25.253906 26.378906 24.941406 27.421875 24.941406 27.421875 C 24.941406 27.421875 25.585938 28.078125 25.519531 28.246094 C 25.457031 28.398438 24.566406 28.402344 24.566406 28.402344 Z M 24.566406 28.402344 "/>
<path style=" stroke:none;fill-rule:nonzero;fill:rgb(100%,72.156864%,1.176471%);fill-opacity:1;" d="M 16.785156 6.789062 C 16.386719 6.742188 15.398438 8.621094 14.90625 9.796875 C 14.230469 11.414062 14.257812 12.148438 14.257812 12.148438 L 14.222656 14.269531 L 18.3125 14.238281 C 18.3125 14.238281 18.453125 13.09375 18.453125 12.441406 C 18.453125 11.789062 18.316406 10.707031 18.011719 9.574219 C 17.726562 8.523438 17.183594 6.835938 16.785156 6.789062 Z M 16.785156 6.789062 "/>
<path style=" stroke:none;fill-rule:nonzero;fill:rgb(99.215686%,56.078434%,0.392157%);fill-opacity:1;" d="M 16.945312 5.109375 C 16.410156 5.09375 15.820312 5.300781 15.714844 6.164062 C 15.621094 6.933594 16.289062 7.386719 16.8125 7.402344 C 17.683594 7.429688 18.078125 6.808594 18.078125 6.152344 C 18.078125 5.578125 17.507812 5.128906 16.945312 5.109375 Z M 16.945312 5.109375 "/>
<path style=" stroke:none;fill-rule:nonzero;fill:rgb(0%,75.686276%,92.54902%);fill-opacity:1;" d="M 18.128906 14.390625 L 20.035156 15.199219 C 20.035156 15.199219 20.308594 13.183594 21.238281 12.441406 C 22.308594 11.582031 22.992188 11.875 22.992188 11.875 L 23.664062 11.15625 C 23.664062 11.15625 22.855469 9.617188 20.90625 9.90625 C 19.109375 10.175781 18.382812 11.425781 18.382812 11.425781 C 18.382812 11.425781 18.433594 11.996094 18.328125 12.96875 C 18.238281 13.777344 18.128906 14.390625 18.128906 14.390625 Z M 18.128906 14.390625 "/>
<path style=" stroke:none;fill-rule:nonzero;fill:rgb(0.392157%,41.568628%,66.274512%);fill-opacity:1;" d="M 22.929688 11.265625 C 22.441406 11.726562 22.460938 12.636719 23.066406 13.078125 C 23.632812 13.488281 24.484375 13.476562 24.878906 12.816406 C 25.246094 12.210938 25.097656 11.40625 24.589844 11.125 C 23.984375 10.792969 23.464844 10.761719 22.929688 11.265625 Z M 22.929688 11.265625 "/>
<path style=" stroke:none;fill-rule:nonzero;fill:rgb(100%,37.64706%,36.862746%);fill-opacity:1;" d="M 8.9375 11.417969 L 9.609375 12.027344 C 9.609375 12.027344 10.734375 11.371094 11.589844 12.378906 C 12.460938 13.398438 12.671875 14.96875 12.671875 14.96875 L 14.664062 13.980469 C 14.664062 13.980469 14.621094 12.003906 14.40625 11.394531 C 14.253906 10.949219 13.574219 9.789062 11.511719 9.800781 C 9.777344 9.816406 8.9375 11.417969 8.9375 11.417969 Z M 8.9375 11.417969 "/>
<path style=" stroke:none;fill-rule:nonzero;fill:rgb(85.490197%,5.490196%,12.941177%);fill-opacity:1;" d="M 8.171875 13.003906 C 8.621094 13.511719 9.496094 13.464844 9.851562 12.957031 C 10.183594 12.484375 10.125 11.835938 9.722656 11.46875 C 9.320312 11.101562 8.703125 10.984375 8.183594 11.488281 C 7.71875 11.949219 7.90625 12.703125 8.171875 13.003906 Z M 8.171875 13.003906 "/>
<path style=" stroke:none;fill-rule:nonzero;fill:rgb(47.450981%,34.509805%,76.078433%);fill-opacity:1;" d="M 12.613281 14.851562 C 12.613281 14.851562 13.660156 13.699219 16.363281 13.753906 C 19.140625 13.808594 20.09375 14.871094 20.09375 14.871094 C 20.09375 14.871094 20.554688 16.46875 20.09375 17.960938 C 19.628906 19.453125 19.316406 19.542969 19.355469 19.933594 C 19.390625 20.324219 19.703125 20.914062 20.503906 21.425781 C 21.300781 21.941406 22.03125 21.925781 22.066406 22.15625 C 22.101562 22.386719 21.65625 22.777344 20.609375 22.6875 C 19.5625 22.597656 18.851562 22.191406 18.796875 22.28125 C 18.742188 22.371094 18.957031 23.148438 19.4375 23.734375 C 19.917969 24.320312 20.574219 24.675781 20.484375 24.890625 C 20.394531 25.105469 18.746094 25.191406 17.714844 24.234375 C 16.683594 23.273438 16.464844 22.546875 16.269531 22.566406 C 16.074219 22.582031 15.671875 23.421875 14.660156 24.199219 C 13.503906 25.085938 12.492188 25.246094 12.296875 24.90625 C 12.066406 24.511719 13.023438 24.125 13.378906 23.292969 C 13.734375 22.457031 13.894531 21.925781 13.824219 21.855469 C 13.753906 21.785156 13.46875 22.496094 12.457031 22.671875 C 11.445312 22.851562 10.734375 22.671875 10.71875 22.40625 C 10.699219 22.136719 11.375 22.101562 12.191406 21.324219 C 12.992188 20.558594 13.253906 20.171875 13.242188 19.789062 C 13.226562 19.320312 12.710938 19.117188 12.464844 17.488281 C 12.269531 16.207031 12.613281 14.851562 12.613281 14.851562 Z M 12.613281 14.851562 "/>
<path style=" stroke:none;fill-rule:nonzero;fill:rgb(94.509804%,92.941177%,92.54902%);fill-opacity:1;" d="M 13.269531 15.316406 C 13.269531 15.316406 13.808594 14.359375 16.230469 14.378906 C 18.761719 14.394531 19.535156 15.414062 19.535156 15.414062 C 19.535156 15.414062 20.03125 20.359375 16.378906 20.28125 C 12.507812 20.199219 13.269531 15.316406 13.269531 15.316406 Z M 13.269531 15.316406 "/>
<path style=" stroke:none;fill-rule:nonzero;fill:rgb(30.980393%,19.607843%,17.254902%);fill-opacity:1;" d="M 17.902344 15.171875 C 17.699219 15.171875 17.609375 15.511719 17.578125 16.1875 C 17.546875 16.84375 17.652344 17.246094 17.878906 17.246094 C 18.109375 17.246094 18.226562 16.886719 18.242188 16.3125 C 18.269531 15.546875 18.136719 15.171875 17.902344 15.171875 Z M 17.902344 15.171875 "/>
<path style=" stroke:none;fill-rule:nonzero;fill:rgb(30.980393%,19.607843%,17.254902%);fill-opacity:1;" d="M 17.046875 16.191406 C 17.046875 16.347656 17.363281 16.523438 17.925781 16.53125 C 18.488281 16.542969 18.753906 16.441406 18.777344 16.242188 C 18.796875 16.085938 18.566406 15.945312 17.898438 15.925781 C 17.234375 15.910156 17.046875 16.003906 17.046875 16.191406 Z M 17.046875 16.191406 "/>
<path style=" stroke:none;fill-rule:nonzero;fill:rgb(30.980393%,19.607843%,17.254902%);fill-opacity:1;" d="M 14.695312 15.199219 C 14.898438 15.199219 14.988281 15.539062 15.019531 16.21875 C 15.050781 16.875 14.945312 17.273438 14.71875 17.273438 C 14.488281 17.273438 14.371094 16.917969 14.355469 16.34375 C 14.328125 15.578125 14.460938 15.199219 14.695312 15.199219 Z M 14.695312 15.199219 "/>
<path style=" stroke:none;fill-rule:nonzero;fill:rgb(30.980393%,19.607843%,17.254902%);fill-opacity:1;" d="M 15.550781 16.222656 C 15.550781 16.378906 15.234375 16.554688 14.671875 16.566406 C 14.109375 16.574219 13.84375 16.476562 13.820312 16.273438 C 13.800781 16.117188 14.03125 15.976562 14.699219 15.960938 C 15.367188 15.941406 15.550781 16.039062 15.550781 16.222656 Z M 15.550781 16.222656 "/>
<path style=" stroke:none;fill-rule:nonzero;fill:rgb(30.980393%,19.607843%,17.254902%);fill-opacity:1;" d="M 15.089844 18.03125 C 14.988281 18.230469 15.238281 19 16.355469 19.015625 C 17.46875 19.03125 17.726562 18.289062 17.65625 18.082031 C 17.574219 17.839844 17.105469 17.976562 16.339844 17.964844 C 15.605469 17.957031 15.191406 17.832031 15.089844 18.03125 Z M 15.089844 18.03125 "/>
</g>
</svg>

<svg xmlns="http://www.w3.org/2000/svg" width="32" height="32"><path d="m25.574 31.36-19.008-.094c-.863 0-1.562-.7-1.562-1.563l3.05-23.031 17.548-5.547c1.535-.082 1.62.633 1.62 1.496l-.093 27.172a1.554 1.554 0 0 1-1.555 1.566m0 0" style="stroke:none;fill-rule:nonzero;fill:#d9cdc9;fill-opacity:1"/><path d="M25.457 30.516s-14.441.246-19.117-.02c-.895-.05-1.332-.406-1.336-.793L4.96 2.582c0-.863.703-1.562 1.562-1.562l18.91.082c.864 0 1.192.714 1.192 1.574l-.14 26.351c-.008.864-.165 1.489-1.028 1.489m0 0" style="stroke:none;fill-rule:nonzero;fill:#f1edec;fill-opacity:1"/><path d="M7.453 3.14s.383-.878.559-.89c.16-.012.574.906.574.906s.86.016.934.133c.074.121-.618.938-.618.938s.29.992.164 1.07c-.117.074-1.039-.453-1.039-.453s-.964.527-1.117.422c-.148-.102.164-1.145.164-1.145s-.64-.664-.57-.832c.062-.152.95-.148.95-.148M24.566 28.402s-.375.883-.55.895c-.157.012-.582-.902-.582-.902s-.891.003-.965-.114c-.078-.12.586-.953.586-.953s-.227-.98-.114-1.07c.153-.121 1.043.445 1.043.445s.965-.535 1.118-.43c.152.106-.16 1.149-.16 1.149s.644.656.578.824c-.063.152-.954.156-.954.156m0 0" style="stroke:none;fill-rule:nonzero;fill:#da0e21;fill-opacity:1"/><path d="M16.785 6.79c-.398-.048-1.387 1.831-1.879 3.007-.676 1.617-.648 2.351-.648 2.351l-.035 2.122 4.09-.032s.14-1.144.14-1.797c0-.652-.137-1.734-.441-2.867-.285-1.05-.828-2.738-1.227-2.785m0 0" style="stroke:none;fill-rule:nonzero;fill:#ffb803;fill-opacity:1"/><path d="M16.945 5.11c-.535-.016-1.125.19-1.23 1.054-.094.77.574 1.223 1.098 1.238.87.028 1.265-.593 1.265-1.25 0-.574-.57-1.023-1.133-1.043m0 0" style="stroke:none;fill-rule:nonzero;fill:#fd8f01;fill-opacity:1"/><path d="m18.129 14.39 1.906.81s.274-2.016 1.203-2.759c1.07-.859 1.754-.566 1.754-.566l.672-.719s-.809-1.539-2.758-1.25c-1.797.27-2.523 1.52-2.523 1.52s.05.57-.055 1.543c-.09.808-.2 1.422-.2 1.422m0 0" style="stroke:none;fill-rule:nonzero;fill:#00c1ec;fill-opacity:1"/><path d="M22.93 11.266c-.489.46-.47 1.37.136 1.812.567.41 1.418.399 1.813-.262.367-.605.219-1.41-.29-1.691-.605-.332-1.124-.363-1.66.14m0 0" style="stroke:none;fill-rule:nonzero;fill:#016aa9;fill-opacity:1"/><path d="m8.938 11.418.671.61s1.125-.657 1.98.35c.872 1.02 1.083 2.59 1.083 2.59l1.992-.988s-.043-1.976-.258-2.585c-.152-.446-.832-1.606-2.894-1.594-1.735.015-2.575 1.617-2.575 1.617m0 0" style="stroke:none;fill-rule:nonzero;fill:#ff605e;fill-opacity:1"/><path d="M8.172 13.004c.45.508 1.324.46 1.68-.047.332-.473.273-1.121-.13-1.488-.402-.367-1.019-.485-1.538.02-.465.46-.278 1.214-.012 1.515m0 0" style="stroke:none;fill-rule:nonzero;fill:#da0e21;fill-opacity:1"/><path d="M12.613 14.852s1.047-1.153 3.75-1.098c2.778.055 3.73 1.117 3.73 1.117s.462 1.598 0 3.09c-.464 1.492-.777 1.582-.738 1.973.036.39.348.98 1.149 1.492.797.515 1.527.5 1.562.73s-.41.621-1.457.532c-1.047-.09-1.757-.497-1.812-.407s.16.867.64 1.453c.481.586 1.137.942 1.047 1.157-.09.214-1.738.3-2.77-.657-1.03-.96-1.25-1.687-1.444-1.668-.196.016-.598.856-1.61 1.633-1.156.887-2.168 1.047-2.363.707-.23-.394.726-.781 1.082-1.613.355-.836.516-1.367.445-1.438-.07-.07-.355.641-1.367.817-1.012.18-1.723 0-1.738-.266-.02-.27.656-.304 1.472-1.082.801-.765 1.063-1.152 1.051-1.535-.015-.469-.531-.672-.777-2.3-.195-1.282.148-2.637.148-2.637m0 0" style="stroke:none;fill-rule:nonzero;fill:#7958c2;fill-opacity:1"/><path d="M13.27 15.316s.539-.957 2.96-.937c2.532.016 3.305 1.035 3.305 1.035s.496 4.945-3.156 4.867c-3.871-.082-3.11-4.965-3.11-4.965m0 0" style="stroke:none;fill-rule:nonzero;fill:#f1edec;fill-opacity:1"/><path d="M17.902 15.172c-.203 0-.293.34-.324 1.015-.031.657.074 1.06.3 1.06.231 0 .349-.36.364-.934.028-.766-.105-1.141-.34-1.141m0 0" style="stroke:none;fill-rule:nonzero;fill:#4f322c;fill-opacity:1"/><path d="M17.047 16.191c0 .157.316.332.879.34.562.012.828-.09.851-.289.02-.156-.21-.297-.879-.316-.664-.016-.851.078-.851.265M14.695 15.2c.203 0 .293.34.325 1.019.03.656-.075 1.054-.301 1.054-.23 0-.348-.355-.364-.93-.027-.765.106-1.144.34-1.144m0 0" style="stroke:none;fill-rule:nonzero;fill:#4f322c;fill-opacity:1"/><path d="M15.55 16.223c0 .156-.316.332-.878.343-.563.008-.828-.09-.852-.293-.02-.156.211-.296.88-.312.667-.02.85.078.85.262M15.09 18.031c-.102.2.148.969 1.265.985 1.114.015 1.372-.727 1.301-.934-.082-.242-.55-.105-1.316-.117-.735-.008-1.149-.133-1.25.066m0 0" style="stroke:none;fill-rule:nonzero;fill:#4f322c;fill-opacity:1"/></svg>
